static/images/past-sponsors/polar-signals.svg

<svg fill="none" height="59" viewBox="0 0 301 59" width="301" xmlns="http://www.w3.org/2000/svg"><g fill="#000"><path d="m27.4123 29.9649c-.1087-.0002-.2153-.0292-.3093-.0838-.0939-.0548-.1717-.1332-.2257-.2276-.0539-.0944-.082-.2012-.0814-.31.0006-.1087.0298-.2153.0847-.309l10.0767-17.5016c.0408-.0704.095-.1321.1596-.1816s.1383-.0857.217-.1067c.0785-.021.1605-.0263.2412-.0156s.1584.0372.2289.078c.0704.0407.1321.095.1816.1596s.0857.1383.1067.2169.0263.1606.0155.2413c-.0106.0807-.037.1584-.0778.2289l-10.082 17.4949c-.0531.0956-.1308.1752-.2249.2309-.0942.0555-.2014.085-.3108.0854z"/><path d="m30.3889 29.9652c-.1085-.0007-.215-.0299-.3087-.0847s-.1713-.1332-.2252-.2274c-.0538-.0943-.0819-.201-.0816-.3095.0004-.1084.0293-.215.0838-.3089l8.5467-14.8963c.0818-.1422.2168-.2462.3751-.2889.1585-.0428.3274-.0208.4696.061.1423.0817.2462.2167.289.3751.0427.1584.0207.3273-.061.4696l-8.5507 14.8936c-.0535.0956-.1314.1752-.2257.2309-.0944.0556-.2018.0851-.3113.0855z"/><path d="m33.4804 29.9653c-.1089.0001-.2158-.0288-.3097-.0838-.0703-.0408-.132-.0952-.1813-.1598-.0494-.0647-.0855-.1385-.1064-.217-.0208-.0787-.026-.1606-.0152-.2413.0108-.0805.0374-.1583.0783-.2286l7.074-12.1675c.0388-.0739.0922-.1393.1571-.192.0647-.0528.1396-.0919.2198-.115.0805-.0231.1646-.0297.2474-.0195.0829.0103.163.0372.2353.0793.0721.042.1351.0981.1851.1651s.0859.1434.1056.2246c.0196.0812.0226.1656.0089.248-.0139.0824-.0442.1612-.0892.2316l-7.074 12.1622c-.0537.0949-.1316.1738-.2256.2288-.0941.0552-.2011.0845-.3101.0849z"/><path d="m36.627 29.9646c-.1072.0004-.2127-.0275-.3057-.0811-.0708-.0407-.1328-.095-.1826-.1599-.0497-.0647-.0862-.1387-.1072-.2177s-.0261-.1612-.0151-.2422c.0109-.0809.0377-.159.0789-.2295l5.3966-9.4626c.0383-.0743.091-.1402.1554-.1935.0643-.0534.1389-.0932.2189-.1171.0801-.0238.1643-.0311.2474-.0216.083.0096.1633.0358.2359.0772s.1361.097.1866.1636c.0506.0666.0872.1427.1075.2238.0204.0811.0241.1654.0109.248-.0131.0826-.0428.1616-.0873.2324l-5.3965 9.4625c-.0539.0969-.1327.1775-.2284.2333-.0956.056-.2046.0851-.3153.0844z"/><path d="m21.4276 40.3323c-.1591-.0073-.3093-.0757-.4193-.191-.11-.1152-.1714-.2683-.1714-.4277s.0614-.3125.1714-.4277c.11-.1153.2602-.1836.4193-.191l19.813-.0226c.1593.0074.3093.0757.4194.191.11.1152.1713.2683.1713.4277s-.0613.3125-.1713.4277c-.1101.1153-.2601.1837-.4194.191l-19.8116.0226z"/><path d="m22.9599 37.7844c-.1592-.0074-.3094-.0757-.4194-.191-.11-.1152-.1714-.2685-.1714-.4277 0-.1594.0614-.3125.1714-.4277.11-.1153.2602-.1837.4194-.191l16.7917-.0519c.1591.0073.3093.0758.4194.191.1099.1153.1713.2684.1713.4278 0 .1592-.0614.3125-.1713.4277-.1101.1152-.2603.1836-.4194.191z"/><path d="m38.206 35.0556-13.6907-.0372c-.0837.0039-.1673-.0093-.2457-.0385-.0785-.0294-.1501-.0743-.2107-.1322s-.1088-.1274-.1418-.2044c-.0329-.0769-.0499-.1599-.0499-.2436 0-.0838.017-.1667.0499-.2437.033-.0769.0812-.1464.1418-.2043s.1322-.1028.2107-.1322c.0784-.0293.162-.0424.2457-.0386l13.6907.0372c.1591.0075.3093.0758.4194.1911.11.1152.1713.2685.1713.4277 0 .1594-.0613.3125-.1713.4277-.1101.1153-.2603.1837-.4194.191z"/><path d="m26.1259 32.3908c-.1592-.0073-.3093-.0758-.4194-.191-.11-.1153-.1713-.2684-.1713-.4278 0-.1592.0613-.3125.1713-.4277.1101-.1152.2602-.1836.4194-.191l10.5126-.0625c.1591.0075.3093.0758.4194.191.1099.1153.1713.2685.1713.4278s-.0614.3125-.1713.4277c-.1101.1152-.2603.1837-.4194.191z"/><path d="m53.3085 40.3236c-.1094 0-.2169-.0291-.3114-.0843-.0947-.055-.173-.1342-.2269-.2294l-9.8707-17.3447c-.0729-.142-.0882-.3066-.0428-.4597.0456-.153.1484-.2825.2871-.3616.1387-.079.3026-.1014.4574-.0626.1549.0389.2887.136.3737.2712l9.8706 17.35c.0811.1425.1022.3111.0589.4692-.0435.158-.1478.2924-.2902.3735-.0933.0525-.1987.0795-.3057.0784z"/><path d="m50.333 40.2699c-.1094.0003-.2168-.0286-.3114-.0835-.0945-.0549-.1728-.1338-.2269-.2288l-8.3833-14.7156c-.0445-.0707-.0741-.1498-.0873-.2323-.0131-.0826-.0094-.167.0109-.2481.0204-.081.0569-.1572.1075-.2238.0506-.0665.1141-.1222.1867-.1636.0725-.0414.1528-.0676.2359-.0772.0831-.0095.1672-.0022.2474.0217.08.0238.1545.0636.2189.117.0643.0534.1171.1192.1554.1935l8.3845 14.7156c.0811.1426.1023.3116.0589.4699-.0433.1581-.1476.2928-.2901.3741-.0935.0537-.1994.0818-.3071.0811z"/><path d="m47.1606 40.3091c-.1101.0004-.2181-.0288-.313-.0845-.0949-.0556-.1732-.1356-.2266-.2318l-6.759-12.0758c-.075-.1429-.0913-.3094-.0453-.4641.0459-.1548.1504-.2854.2912-.3642.1409-.0789.3069-.0996.4628-.0579.1559.0418.2894.1428.3719.2814l6.7577 12.0758c.0529.0941.0802.2004.0793.3085-.0009.1079-.0302.2139-.0848.3071-.0545.0931-.1326.1704-.2264.2239-.0937.0537-.1999.0818-.3078.0816z"/><path d="m44.0823 40.2315c-.1095.0003-.217-.0287-.3117-.0838-.0946-.0552-.1728-.1344-.2266-.2299l-5.2543-9.2711c-.0721-.1421-.0867-.3065-.0407-.4591.046-.1525.1491-.2814.2876-.36.1387-.0785.3023-.1007.4568-.0618.1545.039.2881.1359.3729.2708l5.2543 9.2711c.0402.0708.0661.1485.0761.2292.0099.0807.004.1626-.0178.2409-.0217.0782-.0588.1515-.1089.2154-.0501.0641-.1124.1175-.1833.1573-.0924.0535-.1975.0816-.3044.081z"/><path d="m76.5905 11.918h-12.3044v28.0819h3.5171v-10.8236h8.7873c4.611 0 8.3633-3.8706 8.3633-8.6292 0-4.7585-3.7523-8.6291-8.3633-8.6291zm0 13.6282h-8.7873v-9.9982h8.7873c2.6717 0 4.8449 2.2424 4.8449 4.9991 0 2.7568-2.1732 4.9991-4.8449 4.9991z"/><path d="m94.9786 19.1074c-5.7036 0-10.3438 4.7851-10.3438 10.6722 0 5.887 4.6402 10.6708 10.3438 10.6708 5.7034 0 10.3414-4.7851 10.3414-10.6695s-4.643-10.6735-10.3414-10.6735zm6.8224 10.6735c0 3.8826-3.0568 7.0448-6.8224 7.0448s-6.8254-3.1582-6.8254-7.0448 3.0571-7.0448 6.8254-7.0448 6.8184 3.1622 6.8184 7.0448z"/><path d="m111.357 11.918h-3.517v28.0833h3.517z"/><path d="m131.148 19.5567v2.2224c-1.86-1.713-4.295-2.6664-6.823-2.6717-5.702 0-10.343 4.7851-10.343 10.6722 0 5.887 4.641 10.6708 10.343 10.6708 2.528-.0053 4.963-.9586 6.823-2.6717v2.2224h3.518v-20.4444zm0 10.2229c0 3.8826-3.057 7.0447-6.823 7.0447s-6.826-3.1581-6.826-7.0447 3.058-7.0448 6.826-7.0448 6.823 3.1622 6.823 7.0448z"/><path d="m148.857 19.1575c-1.424.1375-2.804.5722-4.05 1.276s-2.33 1.661-3.183 2.8099v-3.6858h-3.519v20.4457h3.519v-9.4839c0-4.1205 3.254-7.5485 7.252-7.6521h.157v-3.7218z"/><path d="m172.372 24.5566-8.241-2.3248c-1.624-.5875-1.994-2.0616-1.799-3.2446.331-2.0031 2.344-4.0261 6.097-4.0261 2.214 0 3.87.5809 4.918 1.728 1.157 1.2614 1.361 2.976 1.395 3.6553l.01.1914 3.475-.7019-.013-.1502c-.142-1.4993-.654-3.6632-2.279-5.4497-1.744-1.9286-4.271-2.9029-7.509-2.9029-5.806 0-8.988 3.5396-9.57 7.0447-.54 3.2712 1.152 6.2087 4.221 7.3106l8.395 2.3726c2.659.6912 4.202 2.5135 3.946 4.6522-.266 2.1985-2.428 4.4169-6.665 4.4169-2.58 0-4.519-.6858-5.757-2.0376-.797-.868-1.316-2.0111-1.54-3.3961l-.027-.1688-3.447.6991.027.1608c.35 2.0576 1.159 3.7962 2.403 5.168 1.929 2.1267 4.736 3.2073 8.345 3.2073 6.349 0 9.715-3.9397 10.155-7.6003.404-3.3283-1.463-7.2854-6.54-8.6039z"/><path d="m184.315 11.9238c-1.254 0-2.274 1.0528-2.274 2.3474s1.02 2.3474 2.274 2.3474c1.255 0 2.276-1.0528 2.276-2.3474s-1.021-2.3474-2.276-2.3474z"/><path d="m186.075 19.5576h-3.518v20.4444h3.518z"/><path d="m206.394 19.5567v2.2224c-1.86-1.713-4.295-2.6664-6.823-2.6717-5.702 0-10.342 4.7851-10.342 10.6709 0 5.8856 4.64 10.6721 10.342 10.6721 2.528-.0057 4.963-.9596 6.823-2.673v5.3619c.001.1176-.02.2341-.063.3434-.044.1092-.107.2088-.19.2931-.082.0842-.179.1516-.287.1982s-.225.0715-.341.0732h-12.422v3.63h12.422c2.425 0 4.399-2.035 4.399-4.5379v-23.5826zm0 10.2216c0 3.8839-3.057 7.0447-6.823 7.0447s-6.824-3.1582-6.824-7.0447c0-3.8866 3.057-7.0448 6.824-7.0448s6.823 3.1635 6.823 7.0448z"/><path d="m223.003 19.1074c-1.3.0065-2.581.3177-3.739.9086-1.157.591-2.161 1.4452-2.929 2.4942v-2.9535h-3.519v20.4431h3.519v-11.2437c0-3.2592 2.569-5.911 5.729-5.911 3.159 0 5.728 2.6584 5.728 5.911v11.2437h3.623v-12.2153c-.003-4.7852-3.775-8.6771-8.412-8.6771z"/><path d="m250.951 19.5567v2.2224c-1.86-1.7133-4.295-2.6667-6.824-2.6717-5.703 0-10.343 4.7851-10.343 10.6722 0 5.887 4.64 10.6708 10.343 10.6708 2.529-.0051 4.964-.9584 6.824-2.6717v2.2224h3.517v-20.4444zm0 10.2229c0 3.8826-3.057 7.0447-6.824 7.0447s-6.826-3.1581-6.826-7.0447 3.057-7.0448 6.826-7.0448c3.768 0 6.824 3.1622 6.824 7.0448z"/><path d="m261.328 11.918h-3.518v28.0833h3.518z"/><path d="m275.11 27.7901-5.792-1.595c-.992-.3509-1.008-1.1817-.931-1.6442.196-1.1631 1.447-2.3354 3.799-2.3354 1.417 0 2.462.3456 3.105 1.0275.532.5689.733 1.2999.798 1.813l.045.323 3.48-.4719-.041-.3283c-.197-1.4953-.766-2.7621-1.697-3.7616-1.329-1.4329-3.245-2.16-5.684-2.16-4.408 0-6.83 2.6584-7.277 5.2969-.425 2.5254.922 4.7851 3.362 5.6477l5.947 1.6349c1.604.4094 2.547 1.4382 2.4 2.6225-.159 1.284-1.518 2.58-4.196 2.58-1.68 0-2.924-.4174-3.696-1.2415-.491-.521-.811-1.2148-.951-2.0642l-.107-.65-3.467.6832.11.6247c.266 1.522.88 2.8126 1.833 3.8361 1.462 1.5764 3.589 2.3753 6.278 2.3753 4.805 0 7.357-2.9561 7.696-5.7023.31-2.5294-1.119-5.5228-5.014-6.5104z"/></g></svg>

<svg width="301" height="59" viewBox="0 0 301 59" fill="none" xmlns="http://www.w3.org/2000/svg">
<path d="M27.4123 29.9649C27.3036 29.9647 27.197 29.9357 27.103 29.8811C27.0091 29.8263 26.9313 29.7479 26.8773 29.6535C26.8234 29.5591 26.7953 29.4523 26.7959 29.3435C26.7965 29.2348 26.8257 29.1282 26.8806 29.0345L36.9573 11.5329C36.9981 11.4625 37.0523 11.4008 37.1169 11.3513C37.1815 11.3018 37.2552 11.2656 37.3339 11.2446C37.4124 11.2236 37.4944 11.2183 37.5751 11.229C37.6558 11.2397 37.7335 11.2662 37.804 11.307C37.8744 11.3477 37.9361 11.402 37.9856 11.4666C38.0351 11.5312 38.0713 11.6049 38.0923 11.6835C38.1133 11.7621 38.1186 11.8441 38.1078 11.9248C38.0972 12.0055 38.0708 12.0832 38.03 12.1537L27.948 29.6486C27.8949 29.7442 27.8172 29.8238 27.7231 29.8795C27.6289 29.935 27.5217 29.9645 27.4123 29.9649Z" fill="black"/>
<path d="M30.3889 29.9652C30.2804 29.9645 30.1739 29.9353 30.0802 29.8805C29.9865 29.8257 29.9089 29.7473 29.855 29.6531C29.8012 29.5588 29.7731 29.4521 29.7734 29.3436C29.7738 29.2352 29.8027 29.1286 29.8572 29.0347L38.4039 14.1384C38.4857 13.9962 38.6207 13.8922 38.779 13.8495C38.9375 13.8067 39.1064 13.8287 39.2486 13.9105C39.3909 13.9922 39.4948 14.1272 39.5376 14.2856C39.5803 14.444 39.5583 14.6129 39.4766 14.7552L30.9259 29.6488C30.8724 29.7444 30.7945 29.824 30.7002 29.8797C30.6058 29.9353 30.4984 29.9648 30.3889 29.9652Z" fill="black"/>
<path d="M33.4804 29.9653C33.3715 29.9654 33.2646 29.9365 33.1707 29.8815C33.1004 29.8407 33.0387 29.7863 32.9894 29.7217C32.94 29.657 32.9039 29.5832 32.883 29.5047C32.8622 29.426 32.857 29.3441 32.8678 29.2634C32.8786 29.1829 32.9052 29.1051 32.9461 29.0348L40.0201 16.8673C40.0589 16.7934 40.1123 16.728 40.1772 16.6753C40.2419 16.6225 40.3168 16.5834 40.397 16.5603C40.4775 16.5372 40.5616 16.5306 40.6444 16.5408C40.7273 16.5511 40.8074 16.578 40.8797 16.6201C40.9518 16.6621 41.0148 16.7182 41.0648 16.7852C41.1148 16.8522 41.1507 16.9286 41.1704 17.0098C41.19 17.091 41.193 17.1754 41.1793 17.2578C41.1654 17.3402 41.1351 17.419 41.0901 17.4894L34.0161 29.6516C33.9624 29.7465 33.8845 29.8254 33.7905 29.8804C33.6964 29.9356 33.5894 29.9649 33.4804 29.9653Z" fill="black"/>
<path d="M36.627 29.9646C36.5198 29.965 36.4143 29.9371 36.3213 29.8835C36.2505 29.8428 36.1885 29.7885 36.1387 29.7236C36.089 29.6589 36.0525 29.5849 36.0315 29.5059C36.0105 29.4269 36.0054 29.3447 36.0164 29.2637C36.0273 29.1828 36.0541 29.1047 36.0953 29.0342L41.4919 19.5716C41.5302 19.4973 41.5829 19.4314 41.6473 19.3781C41.7116 19.3247 41.7862 19.2849 41.8662 19.261C41.9463 19.2372 42.0305 19.2299 42.1136 19.2394C42.1966 19.249 42.2769 19.2752 42.3495 19.3166C42.4221 19.358 42.4856 19.4136 42.5361 19.4802C42.5867 19.5468 42.6233 19.6229 42.6436 19.704C42.664 19.7851 42.6677 19.8694 42.6545 19.952C42.6414 20.0346 42.6117 20.1136 42.5672 20.1844L37.1707 29.6469C37.1168 29.7438 37.038 29.8244 36.9423 29.8802C36.8467 29.9362 36.7377 29.9653 36.627 29.9646Z" fill="black"/>
<path d="M21.4276 40.3323C21.2685 40.325 21.1183 40.2566 21.0083 40.1413C20.8983 40.0261 20.8369 39.873 20.8369 39.7136C20.8369 39.5542 20.8983 39.4011 21.0083 39.2859C21.1183 39.1706 21.2685 39.1023 21.4276 39.0949L41.2406 39.0723C41.3999 39.0797 41.5499 39.148 41.66 39.2633C41.77 39.3785 41.8313 39.5316 41.8313 39.691C41.8313 39.8504 41.77 40.0035 41.66 40.1187C41.5499 40.234 41.3999 40.3024 41.2406 40.3097L21.429 40.3323H21.4276Z" fill="black"/>
<path d="M22.9599 37.7844C22.8007 37.777 22.6505 37.7087 22.5405 37.5934C22.4305 37.4782 22.3691 37.3249 22.3691 37.1657C22.3691 37.0063 22.4305 36.8532 22.5405 36.738C22.6505 36.6227 22.8007 36.5543 22.9599 36.547L39.7516 36.4951C39.9107 36.5024 40.0609 36.5709 40.171 36.6861C40.2809 36.8014 40.3423 36.9545 40.3423 37.1139C40.3423 37.2731 40.2809 37.4264 40.171 37.5416C40.0609 37.6568 39.9107 37.7252 39.7516 37.7326L22.9599 37.7844Z" fill="black"/>
<path d="M38.206 35.0556L24.5153 35.0184C24.4316 35.0223 24.348 35.0091 24.2696 34.9799C24.1911 34.9505 24.1195 34.9056 24.0589 34.8477C23.9983 34.7898 23.9501 34.7203 23.9171 34.6433C23.8842 34.5664 23.8672 34.4834 23.8672 34.3997C23.8672 34.3159 23.8842 34.233 23.9171 34.156C23.9501 34.0791 23.9983 34.0096 24.0589 33.9517C24.1195 33.8938 24.1911 33.8489 24.2696 33.8195C24.348 33.7902 24.4316 33.7771 24.5153 33.7809L38.206 33.8181C38.3651 33.8256 38.5153 33.8939 38.6254 34.0092C38.7354 34.1244 38.7967 34.2777 38.7967 34.4369C38.7967 34.5963 38.7354 34.7494 38.6254 34.8646C38.5153 34.9799 38.3651 35.0483 38.206 35.0556Z" fill="black"/>
<path d="M26.1259 32.3908C25.9667 32.3835 25.8166 32.315 25.7065 32.1998C25.5965 32.0845 25.5352 31.9314 25.5352 31.772C25.5352 31.6128 25.5965 31.4595 25.7065 31.3443C25.8166 31.2291 25.9667 31.1607 26.1259 31.1533L36.6385 31.0908C36.7976 31.0983 36.9478 31.1666 37.0579 31.2818C37.1678 31.3971 37.2292 31.5503 37.2292 31.7096C37.2292 31.8689 37.1678 32.0221 37.0579 32.1373C36.9478 32.2525 36.7976 32.321 36.6385 32.3283L26.1259 32.3908Z" fill="black"/>
<path d="M53.3085 40.3236C53.1991 40.3236 53.0916 40.2945 52.9971 40.2393C52.9024 40.1843 52.8241 40.1051 52.7702 40.0099L42.8995 22.6652C42.8266 22.5232 42.8113 22.3586 42.8567 22.2055C42.9023 22.0525 43.0051 21.923 43.1438 21.8439C43.2825 21.7649 43.4464 21.7425 43.6012 21.7813C43.7561 21.8202 43.8899 21.9173 43.9749 22.0525L53.8455 39.4025C53.9266 39.545 53.9477 39.7136 53.9044 39.8717C53.8609 40.0297 53.7566 40.1641 53.6142 40.2452C53.5209 40.2977 53.4155 40.3247 53.3085 40.3236Z" fill="black"/>
<path d="M50.333 40.2699C50.2236 40.2702 50.1162 40.2413 50.0216 40.1864C49.9271 40.1315 49.8488 40.0526 49.7947 39.9576L41.4114 25.242C41.3669 25.1713 41.3373 25.0922 41.3241 25.0097C41.311 24.9271 41.3147 24.8427 41.335 24.7616C41.3554 24.6806 41.3919 24.6044 41.4425 24.5378C41.4931 24.4713 41.5566 24.4156 41.6292 24.3742C41.7017 24.3328 41.782 24.3066 41.8651 24.297C41.9482 24.2875 42.0323 24.2948 42.1125 24.3187C42.1925 24.3425 42.267 24.3823 42.3314 24.4357C42.3957 24.4891 42.4485 24.5549 42.4868 24.6292L50.8713 39.3448C50.9524 39.4874 50.9736 39.6564 50.9302 39.8147C50.8869 39.9728 50.7826 40.1075 50.6401 40.1888C50.5466 40.2425 50.4407 40.2706 50.333 40.2699Z" fill="black"/>
<path d="M47.1606 40.3091C47.0505 40.3095 46.9425 40.2803 46.8476 40.2246C46.7527 40.169 46.6744 40.089 46.621 39.9928L39.862 27.917C39.787 27.7741 39.7707 27.6076 39.8167 27.4529C39.8626 27.2981 39.9671 27.1675 40.1079 27.0887C40.2488 27.0098 40.4148 26.9891 40.5707 27.0308C40.7266 27.0726 40.8601 27.1736 40.9426 27.3122L47.7003 39.388C47.7532 39.4821 47.7805 39.5884 47.7796 39.6965C47.7787 39.8044 47.7494 39.9104 47.6948 40.0036C47.6403 40.0967 47.5622 40.174 47.4684 40.2275C47.3747 40.2812 47.2685 40.3093 47.1606 40.3091Z" fill="black"/>
<path d="M44.0823 40.2315C43.9728 40.2318 43.8653 40.2028 43.7706 40.1477C43.676 40.0925 43.5978 40.0133 43.544 39.9178L38.2897 30.6467C38.2176 30.5046 38.203 30.3402 38.249 30.1876C38.295 30.0351 38.3981 29.9062 38.5366 29.8276C38.6753 29.7491 38.8389 29.7269 38.9934 29.7658C39.1479 29.8048 39.2815 29.9017 39.3663 30.0366L44.6206 39.3077C44.6608 39.3785 44.6867 39.4562 44.6967 39.5369C44.7066 39.6176 44.7007 39.6995 44.6789 39.7778C44.6572 39.856 44.6201 39.9293 44.57 39.9932C44.5199 40.0573 44.4576 40.1107 44.3867 40.1505C44.2943 40.204 44.1892 40.2321 44.0823 40.2315Z" fill="black"/>
<path d="M76.5905 11.918H64.2861V39.9999H67.8032V29.1763H76.5905C81.2015 29.1763 84.9538 25.3057 84.9538 20.5471C84.9538 15.7886 81.2015 11.918 76.5905 11.918ZM76.5905 25.5462H67.8032V15.548H76.5905C79.2622 15.548 81.4354 17.7904 81.4354 20.5471C81.4354 23.3039 79.2622 25.5462 76.5905 25.5462Z" fill="black"/>
<path d="M94.9786 19.1074C89.275 19.1074 84.6348 23.8925 84.6348 29.7796C84.6348 35.6666 89.275 40.4504 94.9786 40.4504C100.682 40.4504 105.32 35.6653 105.32 29.7809C105.32 23.8965 100.677 19.1074 94.9786 19.1074ZM101.801 29.7809C101.801 33.6635 98.7442 36.8257 94.9786 36.8257C91.213 36.8257 88.1532 33.6675 88.1532 29.7809C88.1532 25.8943 91.2103 22.7361 94.9786 22.7361C98.7469 22.7361 101.797 25.8983 101.797 29.7809H101.801Z" fill="black"/>
<path d="M111.357 11.918H107.84V40.0013H111.357V11.918Z" fill="black"/>
<path d="M131.148 19.5567V21.7791C129.288 20.0661 126.853 19.1127 124.325 19.1074C118.623 19.1074 113.982 23.8925 113.982 29.7796C113.982 35.6666 118.623 40.4504 124.325 40.4504C126.853 40.4451 129.288 39.4918 131.148 37.7787V40.0011H134.666V19.5567H131.148ZM131.148 29.7796C131.148 33.6622 128.091 36.8243 124.325 36.8243C120.559 36.8243 117.499 33.6662 117.499 29.7796C117.499 25.893 120.557 22.7348 124.325 22.7348C128.093 22.7348 131.148 25.897 131.148 29.7796Z" fill="black"/>
<path d="M148.857 19.1575C147.433 19.295 146.053 19.7297 144.807 20.4335C143.561 21.1373 142.477 22.0945 141.624 23.2434V19.5576H138.105V40.0033H141.624V30.5194C141.624 26.3989 144.878 22.9709 148.876 22.8673H149.033V19.1455L148.857 19.1575Z" fill="black"/>
<path d="M172.372 24.5566L164.131 22.2318C162.507 21.6443 162.137 20.1702 162.332 18.9872C162.663 16.9841 164.676 14.9611 168.429 14.9611C170.643 14.9611 172.299 15.542 173.347 16.6891C174.504 17.9505 174.708 19.6651 174.742 20.3444L174.752 20.5358L178.227 19.8339L178.214 19.6837C178.072 18.1844 177.56 16.0205 175.935 14.234C174.191 12.3054 171.664 11.3311 168.426 11.3311C162.62 11.3311 159.438 14.8707 158.856 18.3758C158.316 21.647 160.008 24.5845 163.077 25.6864L171.472 28.059C174.131 28.7502 175.674 30.5725 175.418 32.7112C175.152 34.9097 172.99 37.1281 168.753 37.1281C166.173 37.1281 164.234 36.4423 162.996 35.0905C162.199 34.2225 161.68 33.0794 161.456 31.6944L161.429 31.5256L157.982 32.2247L158.009 32.3855C158.359 34.4431 159.168 36.1817 160.412 37.5535C162.341 39.6802 165.148 40.7608 168.757 40.7608C175.106 40.7608 178.472 36.8211 178.912 33.1605C179.316 29.8322 177.449 25.8751 172.372 24.5566Z" fill="black"/>
<path d="M184.315 11.9238C183.061 11.9238 182.041 12.9766 182.041 14.2712C182.041 15.5658 183.061 16.6186 184.315 16.6186C185.57 16.6186 186.591 15.5658 186.591 14.2712C186.591 12.9766 185.57 11.9238 184.315 11.9238Z" fill="black"/>
<path d="M186.075 19.5576H182.557V40.002H186.075V19.5576Z" fill="black"/>
<path d="M206.394 19.5567V21.7791C204.534 20.0661 202.099 19.1127 199.571 19.1074C193.869 19.1074 189.229 23.8925 189.229 29.7783C189.229 35.6639 193.869 40.4504 199.571 40.4504C202.099 40.4447 204.534 39.4908 206.394 37.7774V43.1393C206.395 43.2569 206.374 43.3734 206.331 43.4827C206.287 43.5919 206.224 43.6915 206.141 43.7758C206.059 43.86 205.962 43.9274 205.854 43.974C205.746 44.0206 205.629 44.0455 205.513 44.0472H193.091V47.6772H205.513C207.938 47.6772 209.912 45.6422 209.912 43.1393V19.5567H206.394ZM206.394 29.7783C206.394 33.6622 203.337 36.823 199.571 36.823C195.805 36.823 192.747 33.6648 192.747 29.7783C192.747 25.8917 195.804 22.7335 199.571 22.7335C203.338 22.7335 206.394 25.897 206.394 29.7783Z" fill="black"/>
<path d="M223.003 19.1074C221.703 19.1139 220.422 19.4251 219.264 20.016C218.107 20.607 217.103 21.4612 216.335 22.5102V19.5567H212.816V39.9998H216.335V28.7561C216.335 25.4969 218.904 22.8451 222.064 22.8451C225.223 22.8451 227.792 25.5035 227.792 28.7561V39.9998H231.415V27.7845C231.412 22.9993 227.64 19.1074 223.003 19.1074Z" fill="black"/>
<path d="M250.951 19.5567V21.7791C249.091 20.0658 246.656 19.1124 244.127 19.1074C238.424 19.1074 233.784 23.8925 233.784 29.7796C233.784 35.6666 238.424 40.4504 244.127 40.4504C246.656 40.4453 249.091 39.492 250.951 37.7787V40.0011H254.468V19.5567H250.951ZM250.951 29.7796C250.951 33.6622 247.894 36.8243 244.127 36.8243C240.36 36.8243 237.301 33.6662 237.301 29.7796C237.301 25.893 240.358 22.7348 244.127 22.7348C247.895 22.7348 250.951 25.897 250.951 29.7796Z" fill="black"/>
<path d="M261.328 11.918H257.81V40.0013H261.328V11.918Z" fill="black"/>
<path d="M275.11 27.7901L269.318 26.1951C268.326 25.8442 268.31 25.0134 268.387 24.5509C268.583 23.3878 269.834 22.2155 272.186 22.2155C273.603 22.2155 274.648 22.5611 275.291 23.243C275.823 23.8119 276.024 24.5429 276.089 25.056L276.134 25.379L279.614 24.9071L279.573 24.5788C279.376 23.0835 278.807 21.8167 277.876 20.8172C276.547 19.3843 274.631 18.6572 272.192 18.6572C267.784 18.6572 265.362 21.3156 264.915 23.9541C264.49 26.4795 265.837 28.7392 268.277 29.6018L274.224 31.2367C275.828 31.6461 276.771 32.6749 276.624 33.8592C276.465 35.1432 275.106 36.4392 272.428 36.4392C270.748 36.4392 269.504 36.0218 268.732 35.1977C268.241 34.6767 267.921 33.9829 267.781 33.1335L267.674 32.4835L264.207 33.1667L264.317 33.7914C264.583 35.3134 265.197 36.604 266.15 37.6275C267.612 39.2039 269.739 40.0028 272.428 40.0028C277.233 40.0028 279.785 37.0467 280.124 34.3005C280.434 31.7711 279.005 28.7777 275.11 27.7901Z" fill="black"/>
</svg>
